X:272
T:Mug House.
C:John Malchair's Third Collection of Tunes
F:https://www.vwml.org/record/Malchair/3619/p27
F:www.vwml.org/topics/historic-dance-and-tune-books/Malchair
Z:Eric Conrad Jan 2020
N:Mud House is marked at end of MS page as misbarred and rebarring suggestions are present.
N:NB1 No repeats in MS.  Assuming parts are repeated.
M:6/4
L:1/4
K:F
P:A
|: "_NB1"d | B>cd (ec)e | (dB)g B>AG | (AF)A A2c | \
B>cd (ec)e | (fd)f g2d | (BG)G G2 :|
P:B
|: B | (AF)A (AF)A | (AF)d (AF)B | (GE)E E2A | \
(FD)d (Be)d | (ae)a (fd)b | (ga)f g2 :|

